!!!SOCIAL_FUNCTION:	songs of games played in a ceremonial manner
!!!PDT:	1932
!!!OTL: No_10_Song_to_the_East_God.krn
!!!REG: Wisconsin
!!!LANG: Non-Tone
!!!LING_GROUP: Algonquin
**kern	**kern
*staff2	*staff1
=1-	=1-
*clefF4	*clefF4
*k[]	*k[]
*M3/4	*M3/4
8GG/L	8.c\L
8GG/J	.
.	16G\Jk
8GG/L	8.G\L
8GG/J	.
.	16G\Jk
8GG/L	4G\
8GG/J	.
=2||	=2||
*M2/4	*M2/4
2r	4.D\
.	8r
=3||	=3||
*M3/4	*M3/4
2.r	8.G\L
.	16G\Jk
.	8.G\L
.	16A\Jk
.	4G\
=4||	=4||
*M2/4	*M2/4
2r	4.E\
.	8r
=5	=5
2r	8G\L
.	8G\J
.	8G\L
.	8E\J
=6	=6
2r	16E/LK
.	8.C/J
.	16C/
.	16r
.	16E\LL
.	16E\JJ
=7	=7
2r	8.E\L
.	16F\Jk
.	4E\
=8||	=8||
*M3/4	*M3/4
2.r	4D\
.	4r
.	4D\
=9	=9
2.r	2C/
.	4C/
=10	=10
2.r	2D\
.	4E\
=11	=11
2.r	(4.E\
.	8G\)
.	4D\
=12	=12
2.r	4C/
.	4r
.	8C/L
.	8GG/J
=13	=13
2.r	2C/
.	8C/L
.	8C/J
=14	=14
2.r	2.C/
==	==
*-	*-
